X:87
T: Verschlafener Jaeger
N: Q0152D
O: Osteuropa, UdSSR, Ukraine, Ladekopp
N: Anhaengsel an der dritten Zeile.
R: Ballade, Verfuehrung, Versagen, Spott
M: 6/8
L: 1/8
K: A
E | A2EEFG | A3F2
F | F2FAGA | E2DC2
E | E2DB,B,G | A2ccB
c | d2BBAG | A3z2

